!!!OTL@@DE: Der alte Reiter und sein Mantel
!!!COM: Volksweise des 18. Jahrh.
!!!OMD: Schrittm&auml;ssig
!!!LYR: Hotei, Carl von
!!!ONB: Aus dem Schauspiel: Lenore
!!!LDT: 1827
!!!OCL: Erk, Ludwig
!!!GCO: Deutscher Liederschatz, Band 1
**kern	**kern	**kern
*staff3	*staff2	*staff1
*Ipiano	*Ipiano	*Ivox
*>[A,B,B]	*>[A,B,B]	*>[A,B,B]
*>norep[A,B]	*>norep[A,B]	*>norep[A,B]
*>A	*>A	*>A
*clefF4	*clefG2	*clefG2
*k[b-e-]	*k[b-e-]	*k[b-e-]
*B-:	*B-:	*B-:
*met(C)	*met(C)	*met(C)
*M4/4	*M4/4	*M4/4
*MM96	*MM96	*MM96
4F\	4f/	4f/
=1	=1	=1
4BB-\ 4B-\	4d/ 4f/ 4b-/	4b-\
4r	4d/ 4b-/	4b-\
4BB-\ 4F\	4d/ 4b-/	4b-\
4r	4f/ 4dd/	4dd\
=2	=2	=2
4BB-\ (4B-\	4d/ 4f/ (4b-/	(4b-\
4F\)	4f/)	4f/)
4D\	4d/	4d/
4F\	4f/	4f/
=3	=3	=3
4BB-/	4.f/ 4.dd/	4.dd\
4B-\	.	.
.	8d/ 8b-/	8b-\
4F\ 4A\	(8f/ 8dd/L	(8dd\L
.	8e-/) 8cc/	8cc\J)
4FF/ 4F/	(8e-/ 8cc/	(8cc\L
.	8c/) 8a/J	8a\J)
=4	=4	=4
*^	*	*
(4BB-/	2.BB-\	2d/ 2b-/	2b-\
8D/L	.	.	.
8F/J	.	.	.
4B-/)	.	4r	4r
*v	*v	*	*
=!|:	=!|:	=!|:
*>B	*>B	*>B
8D\ (8B-\L	(8f/ 8b-/L	8b-\L
8F\ 8c\J)	8a/) 8cc/J	8cc\J
=5	=5	=5
4B-\ 4d\	4b-\ 4dd\	4dd\
*	*^	*
4BB-/	8dd/L	8f\ 8b-\L	8dd\
.	8dd/J	8f\J	8dd\
*	*v	*v	*
4BB-/	(8g/ 8ee-/L	8ee-\L
.	8f/) 8dd/	8dd\J
4BB-/	8e-/ 8cc/	8cc/L
.	8d/ 8b-/J	8b-/J
=6	=6	=6
*	*^	*
4F\	(4.cc/	2e-\ 2a\	(4.cc\
4FF/	.	.	.
.	8dd/)	.	8dd\)
4FF/	4cc/	4e-\ 4a\	4cc\
*	*v	*v	*
4F\	(8f/L	8f/L
.	8a/J)	8a/J
=7	=7	=7
*^	*	*
4e-/	4F\	4f/ 4a/ 4cc/	4cc\
8e-/L	4F\	8f\ 8cc\L	8cc\L
8c/J	.	8ee-\J	8ee-\J
8f/L	4F\	(8dd\L	8dd\L
8e-/	.	8cc\)	8cc\J
8d/	4F\	8b-\	8b-/L
8c/J	.	8a\J	8a/J
*v	*v	*	*
=8	=8	=8
4B-\ (4d\	(4b-\	(4b-\
4F\)	4f/)	4f/)
4D\	4d/	4d/
(8F\L	(8f/L	8f/L
8D\J)	8b-/J)	8b-/J
=9	=9	=9
4BB-/	4f/ 4dd/	4dd\
4D\ 4B-\	8f/ 8dd/L	8dd\
.	8b-/J	8b-\
4F\ 4A\	(8f/ 8dd/L	(8dd\L
.	8e-/) 8cc/	8cc\J)
4FF/ 4F/	(8e-/ 8cc/	8cc\L
.	8c/) 8a/J	8a\J
=10	=10	=10
2BB-\ 2F\	2d/ 2b-/	2b-\
4r	4r	4r
==:|!	==:|!	==:|!
*-	*-	*-
!!!ENC: Craig Stuart Sapp
!!!END: 2004/06/27/
!!!EFL: 158/651
